X: 487
T: Tiqi na guafeng
L: 1/16
M: 2/4
K: G
e2 d e B2 A B [I:setbarnb 1]| 
d8 | 
e2 d e B2 A B | 
E8 | 
G E G A B2 B d | 
A8 | 
B2 B E G2 G E | 
D8 |]

@@@ Tune index: 9361
